images/50865585.svg

<?xml version="1.0" encoding="UTF-8"?>
<svg xmlns="http://www.w3.org/2000/svg" xmlns:xlink="http://www.w3.org/1999/xlink" width="300pt" height="300pt" viewBox="0 0 300 300" version="1.1">
<defs>
<g>
<symbol overflow="visible" id="glyph0-0">
<path style="stroke:none;" d="M 0.546875 1.9375 L 0.546875 -7.75 L 6.046875 -7.75 L 6.046875 1.9375 Z M 1.171875 1.328125 L 5.4375 1.328125 L 5.4375 -7.140625 L 1.171875 -7.140625 Z M 1.171875 1.328125 "/>
</symbol>
<symbol overflow="visible" id="glyph0-1">
<path style="stroke:none;" d="M 7.078125 -7.40625 L 7.078125 -6.25 C 6.710938 -6.59375 6.320312 -6.847656 5.90625 -7.015625 C 5.5 -7.179688 5.0625 -7.265625 4.59375 -7.265625 C 3.675781 -7.265625 2.972656 -6.984375 2.484375 -6.421875 C 2.003906 -5.867188 1.765625 -5.0625 1.765625 -4 C 1.765625 -2.945312 2.003906 -2.140625 2.484375 -1.578125 C 2.972656 -1.015625 3.675781 -0.734375 4.59375 -0.734375 C 5.0625 -0.734375 5.5 -0.816406 5.90625 -0.984375 C 6.320312 -1.148438 6.710938 -1.40625 7.078125 -1.75 L 7.078125 -0.625 C 6.703125 -0.363281 6.300781 -0.164062 5.875 -0.03125 C 5.457031 0.09375 5.007812 0.15625 4.53125 0.15625 C 3.320312 0.15625 2.367188 -0.210938 1.671875 -0.953125 C 0.972656 -1.703125 0.625 -2.71875 0.625 -4 C 0.625 -5.289062 0.972656 -6.304688 1.671875 -7.046875 C 2.367188 -7.796875 3.320312 -8.171875 4.53125 -8.171875 C 5.007812 -8.171875 5.460938 -8.101562 5.890625 -7.96875 C 6.316406 -7.84375 6.710938 -7.65625 7.078125 -7.40625 Z M 7.078125 -7.40625 "/>
</symbol>
<symbol overflow="visible" id="glyph0-2">
<path style="stroke:none;" d="M 1.03125 -8.359375 L 2.03125 -8.359375 L 2.03125 0 L 1.03125 0 Z M 1.03125 -8.359375 "/>
</symbol>
<symbol overflow="visible" id="glyph0-3">
<path style="stroke:none;" d="M 4.328125 -7.28125 C 3.546875 -7.28125 2.921875 -6.984375 2.453125 -6.390625 C 1.992188 -5.804688 1.765625 -5.007812 1.765625 -4 C 1.765625 -2.988281 1.992188 -2.1875 2.453125 -1.59375 C 2.921875 -1.007812 3.546875 -0.71875 4.328125 -0.71875 C 5.117188 -0.71875 5.742188 -1.007812 6.203125 -1.59375 C 6.660156 -2.1875 6.890625 -2.988281 6.890625 -4 C 6.890625 -5.007812 6.660156 -5.804688 6.203125 -6.390625 C 5.742188 -6.984375 5.117188 -7.28125 4.328125 -7.28125 Z M 4.328125 -8.171875 C 5.453125 -8.171875 6.351562 -7.789062 7.03125 -7.03125 C 7.707031 -6.28125 8.046875 -5.269531 8.046875 -4 C 8.046875 -2.738281 7.707031 -1.726562 7.03125 -0.96875 C 6.351562 -0.21875 5.453125 0.15625 4.328125 0.15625 C 3.203125 0.15625 2.300781 -0.21875 1.625 -0.96875 C 0.957031 -1.71875 0.625 -2.726562 0.625 -4 C 0.625 -5.269531 0.957031 -6.28125 1.625 -7.03125 C 2.300781 -7.789062 3.203125 -8.171875 4.328125 -8.171875 Z M 4.328125 -8.171875 "/>
</symbol>
<symbol overflow="visible" id="glyph0-4">
<path style="stroke:none;" d="M 1.078125 -8.015625 L 2.171875 -8.015625 L 2.171875 -4.734375 L 6.109375 -4.734375 L 6.109375 -8.015625 L 7.1875 -8.015625 L 7.1875 0 L 6.109375 0 L 6.109375 -3.8125 L 2.171875 -3.8125 L 2.171875 0 L 1.078125 0 Z M 1.078125 -8.015625 "/>
</symbol>
<symbol overflow="visible" id="glyph0-5">
<path style="stroke:none;" d="M 1.078125 -8.015625 L 2.546875 -8.015625 L 6.09375 -1.3125 L 6.09375 -8.015625 L 7.15625 -8.015625 L 7.15625 0 L 5.6875 0 L 2.125 -6.703125 L 2.125 0 L 1.078125 0 Z M 1.078125 -8.015625 "/>
</symbol>
</g>
</defs>
<g id="surface15541">
<rect x="0" y="0" width="300" height="300" style="fill:rgb(100%,100%,100%);fill-opacity:1;stroke:none;"/>
<path style="fill:none;stroke-width:1.2;stroke-linecap:butt;stroke-linejoin:miter;stroke:rgb(0%,80%,0%);stroke-opacity:1;stroke-miterlimit:10;" d="M 68.09375 195.496094 L 66.441406 181.304688 "/>
<path style="fill:none;stroke-width:1.2;stroke-linecap:butt;stroke-linejoin:miter;stroke:rgb(0%,0%,0%);stroke-opacity:1;stroke-miterlimit:10;" d="M 66.441406 181.304688 L 64.789062 167.113281 "/>
<path style=" stroke:none;fill-rule:nonzero;fill:rgb(100%,100%,100%);fill-opacity:1;" d="M 63.09375 188.996094 L 74.09375 188.996094 L 74.09375 201.996094 L 63.09375 201.996094 Z M 63.09375 188.996094 "/>
<g style="fill:rgb(0%,80%,0%);fill-opacity:1;">
  <use xlink:href="#glyph0-1" x="63.09375" y="198.897461"/>
  <use xlink:href="#glyph0-2" x="70.544922" y="198.897461"/>
</g>
<path style="fill:none;stroke-width:1.2;stroke-linecap:butt;stroke-linejoin:miter;stroke:rgb(0%,0%,0%);stroke-opacity:1;stroke-miterlimit:10;" d="M 64.789062 167.113281 L 38.554688 155.78125 "/>
<path style="fill:none;stroke-width:1.2;stroke-linecap:butt;stroke-linejoin:miter;stroke:rgb(0%,0%,0%);stroke-opacity:1;stroke-miterlimit:10;" d="M 64.832031 159.804688 L 43.84375 150.742188 "/>
<path style="fill:none;stroke-width:1.2;stroke-linecap:butt;stroke-linejoin:miter;stroke:rgb(0%,0%,0%);stroke-opacity:1;stroke-miterlimit:10;" d="M 87.71875 150.058594 L 64.789062 167.113281 "/>
<path style="fill:none;stroke-width:1.2;stroke-linecap:butt;stroke-linejoin:miter;stroke:rgb(0%,0%,0%);stroke-opacity:1;stroke-miterlimit:10;" d="M 38.554688 155.78125 L 35.25 127.394531 "/>
<path style="fill:none;stroke-width:1.2;stroke-linecap:butt;stroke-linejoin:miter;stroke:rgb(0%,0%,0%);stroke-opacity:1;stroke-miterlimit:10;" d="M 35.25 127.394531 L 58.179688 110.34375 "/>
<path style="fill:none;stroke-width:1.2;stroke-linecap:butt;stroke-linejoin:miter;stroke:rgb(0%,0%,0%);stroke-opacity:1;stroke-miterlimit:10;" d="M 41.554688 131.085938 L 59.898438 117.441406 "/>
<path style="fill:none;stroke-width:1.2;stroke-linecap:butt;stroke-linejoin:miter;stroke:rgb(0%,0%,0%);stroke-opacity:1;stroke-miterlimit:10;" d="M 58.179688 110.34375 L 84.414062 121.671875 "/>
<path style="fill:none;stroke-width:1.2;stroke-linecap:butt;stroke-linejoin:miter;stroke:rgb(0%,0%,0%);stroke-opacity:1;stroke-miterlimit:10;" d="M 84.414062 121.671875 L 87.71875 150.058594 "/>
<path style="fill:none;stroke-width:1.2;stroke-linecap:butt;stroke-linejoin:miter;stroke:rgb(0%,0%,0%);stroke-opacity:1;stroke-miterlimit:10;" d="M 78.066406 125.289062 L 80.710938 147.996094 "/>
<path style="fill:none;stroke-width:1.2;stroke-linecap:butt;stroke-linejoin:miter;stroke:rgb(0%,0%,0%);stroke-opacity:1;stroke-miterlimit:10;" d="M 87.71875 150.058594 L 113.953125 161.386719 "/>
<path style="fill:none;stroke-width:1.2;stroke-linecap:butt;stroke-linejoin:miter;stroke:rgb(0%,0%,0%);stroke-opacity:1;stroke-miterlimit:10;" d="M 113.953125 161.386719 L 117.257812 189.773438 "/>
<path style="fill:none;stroke-width:1.2;stroke-linecap:butt;stroke-linejoin:miter;stroke:rgb(0%,0%,0%);stroke-opacity:1;stroke-miterlimit:10;" d="M 120.960938 163.449219 L 123.605469 186.15625 "/>
<path style="fill:none;stroke-width:1.2;stroke-linecap:butt;stroke-linejoin:miter;stroke:rgb(0%,0%,0%);stroke-opacity:1;stroke-miterlimit:10;" d="M 136.882812 144.335938 L 113.953125 161.386719 "/>
<path style="fill:none;stroke-width:1.2;stroke-linecap:butt;stroke-linejoin:miter;stroke:rgb(0%,0%,0%);stroke-opacity:1;stroke-miterlimit:10;" d="M 117.257812 189.773438 L 143.492188 201.105469 "/>
<path style="fill:none;stroke-width:1.2;stroke-linecap:butt;stroke-linejoin:miter;stroke:rgb(0%,0%,0%);stroke-opacity:1;stroke-miterlimit:10;" d="M 143.492188 201.105469 L 145.144531 215.296875 "/>
<path style="fill:none;stroke-width:1.2;stroke-linecap:butt;stroke-linejoin:miter;stroke:rgb(100%,0%,0%);stroke-opacity:1;stroke-miterlimit:10;" d="M 145.144531 215.296875 L 146.796875 229.488281 "/>
<path style="fill:none;stroke-width:1.2;stroke-linecap:butt;stroke-linejoin:miter;stroke:rgb(0%,0%,0%);stroke-opacity:1;stroke-miterlimit:10;" d="M 143.492188 201.105469 L 166.421875 184.050781 "/>
<path style="fill:none;stroke-width:1.2;stroke-linecap:butt;stroke-linejoin:miter;stroke:rgb(0%,0%,0%);stroke-opacity:1;stroke-miterlimit:10;" d="M 141.773438 194.003906 L 160.117188 180.359375 "/>
<path style=" stroke:none;fill-rule:nonzero;fill:rgb(100%,100%,100%);fill-opacity:1;" d="M 138.796875 222.988281 L 155.796875 222.988281 L 155.796875 235.988281 L 138.796875 235.988281 Z M 138.796875 222.988281 "/>
<g style="fill:rgb(100%,0%,0%);fill-opacity:1;">
  <use xlink:href="#glyph0-3" x="138.796875" y="232.889648"/>
  <use xlink:href="#glyph0-4" x="147.197266" y="232.889648"/>
</g>
<path style="fill:none;stroke-width:1.2;stroke-linecap:butt;stroke-linejoin:miter;stroke:rgb(0%,0%,0%);stroke-opacity:1;stroke-miterlimit:10;" d="M 166.421875 184.050781 L 163.117188 155.664062 "/>
<path style="fill:none;stroke-width:1.2;stroke-linecap:butt;stroke-linejoin:miter;stroke:rgb(0%,0%,0%);stroke-opacity:1;stroke-miterlimit:10;" d="M 163.117188 155.664062 L 174.582031 147.136719 "/>
<path style="fill:none;stroke-width:1.2;stroke-linecap:butt;stroke-linejoin:miter;stroke:rgb(0%,0%,100%);stroke-opacity:1;stroke-miterlimit:10;" d="M 174.582031 147.136719 L 186.046875 138.613281 "/>
<path style="fill:none;stroke-width:1.2;stroke-linecap:butt;stroke-linejoin:miter;stroke:rgb(0%,0%,0%);stroke-opacity:1;stroke-miterlimit:10;" d="M 136.882812 144.335938 L 163.117188 155.664062 "/>
<path style="fill:none;stroke-width:1.2;stroke-linecap:butt;stroke-linejoin:miter;stroke:rgb(0%,0%,0%);stroke-opacity:1;stroke-miterlimit:10;" d="M 136.839844 151.640625 L 157.828125 160.707031 "/>
<path style="fill:none;stroke-width:1.2;stroke-linecap:butt;stroke-linejoin:miter;stroke:rgb(0%,0%,100%);stroke-opacity:1;stroke-miterlimit:10;" d="M 186.046875 138.613281 L 184.394531 124.417969 "/>
<path style="fill:none;stroke-width:1.2;stroke-linecap:butt;stroke-linejoin:miter;stroke:rgb(0%,0%,0%);stroke-opacity:1;stroke-miterlimit:10;" d="M 184.394531 124.417969 L 182.742188 110.226562 "/>
<path style="fill:none;stroke-width:1.2;stroke-linecap:butt;stroke-linejoin:miter;stroke:rgb(0%,0%,100%);stroke-opacity:1;stroke-miterlimit:10;" d="M 186.046875 138.613281 L 199.164062 144.277344 "/>
<path style="fill:none;stroke-width:1.2;stroke-linecap:butt;stroke-linejoin:miter;stroke:rgb(0%,0%,0%);stroke-opacity:1;stroke-miterlimit:10;" d="M 199.164062 144.277344 L 212.28125 149.941406 "/>
<path style=" stroke:none;fill-rule:nonzero;fill:rgb(100%,100%,100%);fill-opacity:1;" d="M 182.046875 132.113281 L 190.046875 132.113281 L 190.046875 145.113281 L 182.046875 145.113281 Z M 182.046875 132.113281 "/>
<g style="fill:rgb(0%,0%,100%);fill-opacity:1;">
  <use xlink:href="#glyph0-5" x="182.046875" y="142.014648"/>
</g>
<path style="fill:none;stroke-width:1.2;stroke-linecap:butt;stroke-linejoin:miter;stroke:rgb(0%,0%,0%);stroke-opacity:1;stroke-miterlimit:10;" d="M 184.75 112.925781 L 196.214844 104.398438 "/>
<path style="fill:none;stroke-width:1.2;stroke-linecap:butt;stroke-linejoin:miter;stroke:rgb(100%,0%,0%);stroke-opacity:1;stroke-miterlimit:10;" d="M 196.214844 104.398438 L 207.679688 95.871094 "/>
<path style="fill:none;stroke-width:1.2;stroke-linecap:butt;stroke-linejoin:miter;stroke:rgb(0%,0%,0%);stroke-opacity:1;stroke-miterlimit:10;" d="M 180.738281 107.527344 L 192.203125 99 "/>
<path style="fill:none;stroke-width:1.2;stroke-linecap:butt;stroke-linejoin:miter;stroke:rgb(100%,0%,0%);stroke-opacity:1;stroke-miterlimit:10;" d="M 192.203125 99 L 203.667969 90.472656 "/>
<path style="fill:none;stroke-width:1.2;stroke-linecap:butt;stroke-linejoin:miter;stroke:rgb(0%,0%,0%);stroke-opacity:1;stroke-miterlimit:10;" d="M 182.742188 110.226562 L 156.507812 98.894531 "/>
<path style=" stroke:none;fill-rule:nonzero;fill:rgb(100%,100%,100%);fill-opacity:1;" d="M 201.671875 86.671875 L 210.671875 86.671875 L 210.671875 99.671875 L 201.671875 99.671875 Z M 201.671875 86.671875 "/>
<g style="fill:rgb(100%,0%,0%);fill-opacity:1;">
  <use xlink:href="#glyph0-3" x="201.671875" y="96.573242"/>
</g>
<path style="fill:none;stroke-width:1.2;stroke-linecap:butt;stroke-linejoin:miter;stroke:rgb(0%,0%,0%);stroke-opacity:1;stroke-miterlimit:10;" d="M 156.507812 98.894531 L 154.855469 84.703125 "/>
<path style="fill:none;stroke-width:1.2;stroke-linecap:butt;stroke-linejoin:miter;stroke:rgb(100%,0%,0%);stroke-opacity:1;stroke-miterlimit:10;" d="M 154.855469 84.703125 L 153.203125 70.511719 "/>
<path style="fill:none;stroke-width:1.2;stroke-linecap:butt;stroke-linejoin:miter;stroke:rgb(0%,0%,0%);stroke-opacity:1;stroke-miterlimit:10;" d="M 156.507812 98.894531 L 133.578125 115.949219 "/>
<path style=" stroke:none;fill-rule:nonzero;fill:rgb(100%,100%,100%);fill-opacity:1;" d="M 145.203125 64.011719 L 162.203125 64.011719 L 162.203125 77.011719 L 145.203125 77.011719 Z M 145.203125 64.011719 "/>
<g style="fill:rgb(100%,0%,0%);fill-opacity:1;">
  <use xlink:href="#glyph0-4" x="145.203125" y="73.913086"/>
  <use xlink:href="#glyph0-3" x="153.227539" y="73.913086"/>
</g>
<path style="fill:none;stroke-width:1.2;stroke-linecap:butt;stroke-linejoin:miter;stroke:rgb(0%,0%,0%);stroke-opacity:1;stroke-miterlimit:10;" d="M 133.578125 115.949219 L 136.882812 144.335938 "/>
<path style="fill:none;stroke-width:1.2;stroke-linecap:butt;stroke-linejoin:miter;stroke:rgb(0%,0%,0%);stroke-opacity:1;stroke-miterlimit:10;" d="M 212.28125 149.941406 L 215.585938 178.328125 "/>
<path style="fill:none;stroke-width:1.2;stroke-linecap:butt;stroke-linejoin:miter;stroke:rgb(0%,0%,0%);stroke-opacity:1;stroke-miterlimit:10;" d="M 219.289062 152.003906 L 221.933594 174.710938 "/>
<path style="fill:none;stroke-width:1.2;stroke-linecap:butt;stroke-linejoin:miter;stroke:rgb(0%,0%,0%);stroke-opacity:1;stroke-miterlimit:10;" d="M 235.210938 132.886719 L 212.28125 149.941406 "/>
<path style="fill:none;stroke-width:1.2;stroke-linecap:butt;stroke-linejoin:miter;stroke:rgb(0%,0%,0%);stroke-opacity:1;stroke-miterlimit:10;" d="M 215.585938 178.328125 L 204.121094 186.855469 "/>
<path style="fill:none;stroke-width:1.2;stroke-linecap:butt;stroke-linejoin:miter;stroke:rgb(0%,80%,0%);stroke-opacity:1;stroke-miterlimit:10;" d="M 204.121094 186.855469 L 192.65625 195.382812 "/>
<path style="fill:none;stroke-width:1.2;stroke-linecap:butt;stroke-linejoin:miter;stroke:rgb(0%,0%,0%);stroke-opacity:1;stroke-miterlimit:10;" d="M 215.585938 178.328125 L 241.820312 189.65625 "/>
<path style=" stroke:none;fill-rule:nonzero;fill:rgb(100%,100%,100%);fill-opacity:1;" d="M 181.65625 188.882812 L 192.65625 188.882812 L 192.65625 201.882812 L 181.65625 201.882812 Z M 181.65625 188.882812 "/>
<g style="fill:rgb(0%,80%,0%);fill-opacity:1;">
  <use xlink:href="#glyph0-1" x="181.65625" y="198.78418"/>
  <use xlink:href="#glyph0-2" x="189.107422" y="198.78418"/>
</g>
<path style="fill:none;stroke-width:1.2;stroke-linecap:butt;stroke-linejoin:miter;stroke:rgb(0%,0%,0%);stroke-opacity:1;stroke-miterlimit:10;" d="M 241.820312 189.65625 L 264.75 172.605469 "/>
<path style="fill:none;stroke-width:1.2;stroke-linecap:butt;stroke-linejoin:miter;stroke:rgb(0%,0%,0%);stroke-opacity:1;stroke-miterlimit:10;" d="M 240.101562 182.558594 L 258.445312 168.914062 "/>
<path style="fill:none;stroke-width:1.2;stroke-linecap:butt;stroke-linejoin:miter;stroke:rgb(0%,0%,0%);stroke-opacity:1;stroke-miterlimit:10;" d="M 264.75 172.605469 L 261.445312 144.21875 "/>
<path style="fill:none;stroke-width:1.2;stroke-linecap:butt;stroke-linejoin:miter;stroke:rgb(0%,0%,0%);stroke-opacity:1;stroke-miterlimit:10;" d="M 261.445312 144.21875 L 235.210938 132.886719 "/>
<path style="fill:none;stroke-width:1.2;stroke-linecap:butt;stroke-linejoin:miter;stroke:rgb(0%,0%,0%);stroke-opacity:1;stroke-miterlimit:10;" d="M 256.15625 149.257812 L 235.167969 140.195312 "/>
<path style="fill:none;stroke-width:1.2;stroke-linecap:butt;stroke-linejoin:miter;stroke:rgb(0%,0%,0%);stroke-opacity:1;stroke-miterlimit:10;" d="M 235.210938 132.886719 L 233.558594 118.695312 "/>
<path style="fill:none;stroke-width:1.2;stroke-linecap:butt;stroke-linejoin:miter;stroke:rgb(0%,80%,0%);stroke-opacity:1;stroke-miterlimit:10;" d="M 233.558594 118.695312 L 231.90625 104.503906 "/>
<path style=" stroke:none;fill-rule:nonzero;fill:rgb(100%,100%,100%);fill-opacity:1;" d="M 226.90625 98.003906 L 237.90625 98.003906 L 237.90625 111.003906 L 226.90625 111.003906 Z M 226.90625 98.003906 "/>
<g style="fill:rgb(0%,80%,0%);fill-opacity:1;">
  <use xlink:href="#glyph0-1" x="226.90625" y="107.905273"/>
  <use xlink:href="#glyph0-2" x="234.357422" y="107.905273"/>
</g>
</g>
</svg>

<svg xmlns="http://www.w3.org/2000/svg" xmlns:xlink="http://www.w3.org/1999/xlink" width="300pt" height="300pt" viewBox="0 0 300 300"><defs><symbol overflow="visible"><path d="M.547 1.938V-7.75h5.5v9.688zm.625-.61h4.266v-8.47H1.171zm0 0"/></symbol><symbol overflow="visible" id="a"><path d="M7.078-7.406v1.156c-.367-.344-.758-.598-1.172-.766-.406-.164-.843-.25-1.312-.25-.918 0-1.62.282-2.11.844-.48.555-.718 1.36-.718 2.422 0 1.055.238 1.86.718 2.422.49.562 1.192.844 2.11.844.468 0 .906-.082 1.312-.25.414-.164.805-.422 1.172-.766v1.125c-.375.262-.777.46-1.203.594-.418.124-.867.186-1.344.186-1.21 0-2.163-.367-2.858-1.11C.972-1.703.625-2.718.625-4c0-1.29.348-2.305 1.047-3.047.695-.75 1.648-1.125 2.86-1.125.476 0 .93.07 1.36.203.424.126.82.314 1.186.564zm0 0"/></symbol><symbol overflow="visible" id="b"><path d="M1.03-8.36h1V0h-1zm0 0"/></symbol><symbol overflow="visible" id="c"><path d="M4.328-7.28c-.78 0-1.406.296-1.875.89-.46.585-.687 1.382-.687 2.39 0 1.012.226 1.813.687 2.406.47.586 1.094.875 1.875.875.79 0 1.414-.288 1.875-.874.457-.593.688-1.394.688-2.406 0-1.008-.23-1.805-.687-2.39-.46-.594-1.086-.89-1.875-.89zm0-.892c1.125 0 2.024.383 2.703 1.14C7.708-6.28 8.048-5.27 8.048-4c0 1.262-.34 2.273-1.016 3.03C6.353-.22 5.454.157 4.33.157S2.3-.22 1.625-.97c-.668-.75-1-1.757-1-3.03 0-1.27.332-2.28 1-3.03.676-.76 1.578-1.142 2.703-1.142zm0 0"/></symbol><symbol overflow="visible" id="d"><path d="M1.078-8.016h1.094v3.282H6.11v-3.282h1.077V0H6.11v-3.813H2.17V0H1.078zm0 0"/></symbol><symbol overflow="visible" id="e"><path d="M1.078-8.016h1.47l3.546 6.704v-6.704h1.062V0H5.688L2.124-6.703V0H1.078zm0 0"/></symbol></defs><g><path fill="#fff" d="M0 0h300v300H0z"/><path d="M68.094 195.496l-1.653-14.19" stroke-width="1.2" stroke="#0c0" stroke-miterlimit="10" fill="none"/><path d="M66.44 181.305l-1.65-14.192" stroke-width="1.2" stroke="#000" stroke-miterlimit="10" fill="none"/><path d="M63.094 188.996h11v13h-11zm0 0" fill="#fff"/><g fill="#0c0"><use xlink:href="#a" x="63.094" y="198.897"/><use xlink:href="#b" x="70.545" y="198.897"/></g><path d="M64.79 167.113L38.554 155.78M64.832 159.805l-20.988-9.063M87.72 150.06l-22.93 17.053M38.555 155.78l-3.305-28.385M35.25 127.395l22.93-17.05M41.555 131.086l18.343-13.645M58.18 110.344l26.234 11.328M84.414 121.672l3.305 28.387M78.066 125.29l2.645 22.706M87.72 150.06l26.233 11.327M113.953 161.387l3.305 28.386M120.96 163.45l2.645 22.706M136.883 144.336l-22.93 17.05M117.258 189.773l26.234 11.332M143.492 201.105l1.653 14.192" stroke-width="1.2" stroke="#000" stroke-miterlimit="10" fill="none"/><path d="M145.145 215.297l1.652 14.19" stroke-width="1.2" stroke="#f00" stroke-miterlimit="10" fill="none"/><path d="M143.492 201.105l22.93-17.054M141.773 194.004l18.344-13.645" stroke-width="1.2" stroke="#000" stroke-miterlimit="10" fill="none"/><path d="M138.797 222.988h17v13h-17zm0 0" fill="#fff"/><g fill="#f00"><use xlink:href="#c" x="138.797" y="232.89"/><use xlink:href="#d" x="147.197" y="232.89"/></g><path d="M166.422 184.05l-3.305-28.386M163.117 155.664l11.465-8.527" stroke-width="1.2" stroke="#000" stroke-miterlimit="10" fill="none"/><path d="M174.582 147.137l11.465-8.524" stroke-width="1.2" stroke="#00f" stroke-miterlimit="10" fill="none"/><path d="M136.883 144.336l26.234 11.328M136.84 151.64l20.988 9.067" stroke-width="1.2" stroke="#000" stroke-miterlimit="10" fill="none"/><path d="M186.047 138.613l-1.652-14.195" stroke-width="1.2" stroke="#00f" stroke-miterlimit="10" fill="none"/><path d="M184.395 124.418l-1.653-14.19" stroke-width="1.2" stroke="#000" stroke-miterlimit="10" fill="none"/><path d="M186.047 138.613l13.117 5.664" stroke-width="1.2" stroke="#00f" stroke-miterlimit="10" fill="none"/><path d="M199.164 144.277l13.117 5.664" stroke-width="1.2" stroke="#000" stroke-miterlimit="10" fill="none"/><path d="M182.047 132.113h8v13h-8zm0 0" fill="#fff"/><use xlink:href="#e" x="182.047" y="142.015" fill="#00f"/><path d="M184.75 112.926l11.465-8.528" stroke-width="1.2" stroke="#000" stroke-miterlimit="10" fill="none"/><path d="M196.215 104.398l11.465-8.527" stroke-width="1.2" stroke="#f00" stroke-miterlimit="10" fill="none"/><path d="M180.738 107.527L192.203 99" stroke-width="1.2" stroke="#000" stroke-miterlimit="10" fill="none"/><path d="M192.203 99l11.465-8.527" stroke-width="1.2" stroke="#f00" stroke-miterlimit="10" fill="none"/><path d="M182.742 110.227l-26.234-11.332" stroke-width="1.2" stroke="#000" stroke-miterlimit="10" fill="none"/><path d="M201.672 86.672h9v13h-9zm0 0" fill="#fff"/><use xlink:href="#c" x="201.672" y="96.573" fill="#f00"/><path d="M156.508 98.895l-1.653-14.192" stroke-width="1.2" stroke="#000" stroke-miterlimit="10" fill="none"/><path d="M154.855 84.703l-1.652-14.19" stroke-width="1.2" stroke="#f00" stroke-miterlimit="10" fill="none"/><path d="M156.508 98.895l-22.93 17.054" stroke-width="1.2" stroke="#000" stroke-miterlimit="10" fill="none"/><path d="M145.203 64.012h17v13h-17zm0 0" fill="#fff"/><g fill="#f00"><use xlink:href="#d" x="145.203" y="73.913"/><use xlink:href="#c" x="153.228" y="73.913"/></g><path d="M133.578 115.95l3.305 28.386M212.28 149.94l3.306 28.388M219.29 152.004l2.644 22.707M235.21 132.887l-22.93 17.054M215.586 178.328l-11.465 8.527" stroke-width="1.2" stroke="#000" stroke-miterlimit="10" fill="none"/><path d="M204.12 186.855l-11.464 8.528" stroke-width="1.2" stroke="#0c0" stroke-miterlimit="10" fill="none"/><path d="M215.586 178.328l26.234 11.328" stroke-width="1.2" stroke="#000" stroke-miterlimit="10" fill="none"/><path d="M181.656 188.883h11v13h-11zm0 0" fill="#fff"/><g fill="#0c0"><use xlink:href="#a" x="181.656" y="198.784"/><use xlink:href="#b" x="189.107" y="198.784"/></g><path d="M241.82 189.656l22.93-17.05M240.102 182.56l18.343-13.646M264.75 172.605l-3.305-28.386M261.445 144.22l-26.234-11.333M256.156 149.258l-20.988-9.063M235.21 132.887l-1.65-14.192" stroke-width="1.2" stroke="#000" stroke-miterlimit="10" fill="none"/><path d="M233.56 118.695l-1.654-14.19" stroke-width="1.2" stroke="#0c0" stroke-miterlimit="10" fill="none"/><path d="M226.906 98.004h11v13h-11zm0 0" fill="#fff"/><g fill="#0c0"><use xlink:href="#a" x="226.906" y="107.905"/><use xlink:href="#b" x="234.357" y="107.905"/></g></g></svg>
